svgs/nextcloud_talk.svg

<svg width="192" height="192" viewBox="0 0 192 192" fill="none" xmlns="http://www.w3.org/2000/svg">
<path d="M169.467 171.998C170.866 171.998 171.999 170.864 171.999 169.465C171.999 169.465 171.999 97.1302 171.999 96C171.999 54.0256 137.974 20 95.9997 20C54.0272 20 20 54.0256 20 96C20 137.974 54.0272 172 95.9997 172C97.1317 172 169.467 171.998 169.467 171.998Z" stroke="black" stroke-width="8"/>
<path d="M95.9677 45.4883C89.3387 45.4884 82.7746 46.7942 76.6503 49.3312C70.5259 51.8681 64.9612 55.5866 60.2739 60.2742C55.5865 64.9618 51.8684 70.5268 49.3317 76.6513C46.7951 82.7759 45.4896 89.3402 45.4897 95.9693C45.4897 109.357 50.8079 122.197 60.2744 131.664C69.7408 141.13 82.5801 146.449 95.9677 146.449C105.208 146.43 114.265 143.876 122.153 139.064C128.357 141.529 142.253 148.843 145.561 145.684C149.017 142.383 141.503 126.849 139.702 121.077C144.103 113.44 146.428 104.783 146.445 95.9689C146.445 82.5812 141.127 69.742 131.661 60.2754C122.194 50.8088 109.355 45.4904 95.9679 45.49L95.9677 45.4883ZM95.9734 64.6801C100.084 64.6801 104.154 65.4897 107.951 67.0627C111.749 68.6357 115.199 70.9413 118.106 73.8478C121.012 76.7544 123.318 80.205 124.891 84.0026C126.464 87.8002 127.273 91.8704 127.273 95.9809C127.273 104.282 123.975 112.243 118.105 118.112C112.235 123.982 104.274 127.279 95.9735 127.279C87.6726 127.279 79.7117 123.982 73.8419 118.112C67.9721 112.243 64.6741 104.282 64.6736 95.9809C64.6736 91.8704 65.4832 87.8002 67.0561 84.0026C68.6291 80.205 70.9346 76.7544 73.8411 73.8479C76.7476 70.9413 80.1981 68.6357 83.9955 67.0627C87.793 65.4897 91.863 64.6801 95.9734 64.6801Z" stroke="black" stroke-width="8" stroke-linejoin="round"/>
</svg>

<svg width="192" height="192" viewBox="0 0 192 192" fill="none" xmlns="http://www.w3.org/2000/svg"><path d="M169.467 171.998a2.532 2.532 0 0 0 2.532-2.533V96c0-41.974-34.025-76-76-76C54.028 20 20 54.026 20 96s34.027 76 76 76l73.467-.002Z" stroke="#000" stroke-width="8"/><path d="M95.968 45.488A50.477 50.477 0 0 0 45.49 95.97a50.482 50.482 0 0 0 50.478 50.48 50.478 50.478 0 0 0 26.185-7.385c6.204 2.465 20.1 9.779 23.408 6.62 3.456-3.301-4.058-18.835-5.859-24.607a50.483 50.483 0 0 0 6.743-25.108A50.48 50.48 0 0 0 95.968 45.49v-.002Zm.005 19.192a31.295 31.295 0 0 1 22.133 9.168 31.31 31.31 0 0 1 9.167 22.133 31.296 31.296 0 0 1-31.3 31.298 31.298 31.298 0 0 1-28.917-43.276A31.3 31.3 0 0 1 95.973 64.68Z" stroke="#000" stroke-width="8" stroke-linejoin="round"/></svg>
